X: 35944
T: Sarah
R: waltz
M: 3/4
K: Gmajor
D2|G3G G2|G2 E2 G2|A3B A2|F2 D2 D2|G3G G2|G2 EG Bd|e2 f2 e2|d4 ef|
g3g g2|f2 B2 d2|e3e e2|d2 B2 A2|G3G G2|G2A2B2|A3G F2|G4:|
|:B,2|E3E E2|E2 G2 B2|(3ABA G2 F2|E4 GA|B4 GA|B4 GA|B2 A2 G2|F4 B,2|
E3E E2|E2 G2 B2|(3ABA G2 F2|E4 GA|B3B B2|e2 B2 G2|(3ABA G2 F2|E4:|
AB|c2 e2 c2|B2 A2 BA|G2 B2 G2|F2 D2 B,2|E2 CE CE|F2 DF DF|G2 EG EG|A4 AB|
c2 e2 c2|B2 A2 BA|G2 B2 G2|F2 D2 B,2|E2 CE CE|F2 DF DF|G2 EG EG|A2 B3 D|
G3G G2|G2 E2 G2|A3B A2|F2 D2 D2|G3G G2|G2 EG Bd|e2 f2 e2|d4 ef|
g3g g2|f2 B2 d2|e3e e2|d2 B2 A2|G3G G2|G2A2B2|A3G F2|G4||

